actions/24/document-export-symbolic-rtl.svg

<?xml version="1.0" encoding="UTF-8" standalone="no"?>
<svg
   height="24"
   width="24"
   version="1.1"
   id="svg13076"
   sodipodi:docname="document-export-symbolic-rtl.svg"
   inkscape:version="1.2.2 (b0a8486541, 2022-12-01)"
   xmlns:inkscape="http://www.inkscape.org/namespaces/inkscape"
   xmlns:sodipodi="http://sodipodi.sourceforge.net/DTD/sodipodi-0.dtd"
   xmlns="http://www.w3.org/2000/svg"
   xmlns:svg="http://www.w3.org/2000/svg">
  <defs
     id="defs13080" />
  <sodipodi:namedview
     id="namedview13078"
     pagecolor="#ffffff"
     bordercolor="#000000"
     borderopacity="0.25"
     inkscape:showpageshadow="2"
     inkscape:pageopacity="0.0"
     inkscape:pagecheckerboard="0"
     inkscape:deskcolor="#d1d1d1"
     showgrid="false"
     inkscape:zoom="33.5"
     inkscape:cx="12"
     inkscape:cy="12.014925"
     inkscape:window-width="1920"
     inkscape:window-height="1030"
     inkscape:window-x="0"
     inkscape:window-y="0"
     inkscape:window-maximized="1"
     inkscape:current-layer="svg13076" />
  <path
     id="path7523"
     style="fill:#555761;fill-opacity:1;marker:none"
     d="m 20,2 c 0,0 2,2e-6 2,2 v 16 c 0,1.999998 -2,2 -2,2 H 4.0000003 c 0,0 -2,-2e-6 -2,-2 v -4.625 l 2,1.689453 V 19 c 0,0.999999 1,1 1,1 H 19 c 0,0 1,-1e-6 1,-1 V 5 C 20,4.000001 19,4 19,4 H 5.0000003 c -0.999999,0 -1,1 -1,1 v 1.9355469 l -2,1.6894531 V 4 c 0,-1.999998 2,-2 2,-2 z" />
  <path
     id="rect3396"
     style="fill:#555761;fill-opacity:1;stroke:none;stroke-width:0.999995;stroke-linejoin:round;stroke-opacity:0.5;stop-color:#000000"
     d="m 6.9960937,7.0000014 c 0.1416641,-7.402e-4 0.2839101,0.028978 0.4179681,0.089844 0.3568059,0.162335 0.585877,0.5181571 0.585938,0.910156 V 10 H 13 c 0.553998,0 1,0.446002 1,1 v 2 c 0,0.553998 -0.446002,1 -1,1 H 7.9999998 v 1.999024 c -9.5e-4,0.858428 -1.011819,1.316832 -1.658203,0.751952 L 1.8410007,12.95197 c -0.454309,-0.398371 -0.454309,-1.505629 0,-1.904 L 6.3417968,7.2480483 C 6.5264118,7.0864024 6.7599858,7.0012351 6.9960937,7.0000014 Z"
     sodipodi:nodetypes="scccssssccccccs" />
</svg>

<svg
        xmlns='http://www.w3.org/2000/svg'
        xmlns:svg='http://www.w3.org/2000/svg'
        id='svg13076'
        width='24'
        height='24'>
  <path
          id='path7523'
          fill='url(#gpa:foreground) #555761'
          fill-opacity='1'
          fill-rule='nonzero'
          marker-start='none'
          marker-mid='none'
          marker-end='none'
          d='M 20 2 C 20 2, 22 2, 22 4 L 22 20 C 22 22, 20 22, 20 22 L 4 22 C 4 22, 2 22, 2 20 L 2 15.375 L 4 17.0645 L 4 19 C 4 20, 5 20, 5 20 L 19 20 C 19 20, 20 20, 20 19 L 20 5 C 20 4, 19 4, 19 4 L 5 4 C 4 4, 4 5, 4 5 L 4 6.93555 L 2 8.625 L 2 4 C 2 2, 4 2, 4 2 Z'
          class="foreground">
  </path>
  <path
          id='rect3396'
          fill='url(#gpa:foreground) #555761'
          fill-opacity='1'
          fill-rule='nonzero'
          stroke='none'
          stroke-opacity='0.5'
          stroke-width='0.999995'
          stroke-linejoin='round'
          d='M 6.99609 7 C 7.13776 6.99926, 7.28 7.02898, 7.41406 7.08985 C 7.77087 7.25218, 7.99994 7.608, 8 8 L 8 10 L 13 10 C 13.554 10, 14 10.446, 14 11 L 14 13 C 14 13.554, 13.554 14, 13 14 L 8 14 L 8 15.999 C 7.99905 16.8575, 6.98818 17.3159, 6.3418 16.751 L 1.841 12.952 C 1.38669 12.5536, 1.38669 11.4463, 1.841 11.048 L 6.3418 7.24805 C 6.52641 7.0864, 6.75999 7.00124, 6.99609 7 Z'
          class="foreground">
  </path>
</svg>
